64x64/apps/phototonic.svg

<svg xmlns="http://www.w3.org/2000/svg" width="64" height="64" version="1.1">
 <path style="opacity:0.2" d="M 61,12.875 C 61,11.28225 59.7066,10 58.1,10 H 5.9 C 4.2934,10 3,11.28225 3,12.875 v 40.25 C 3,54.71775 4.2934,56 5.9,56 H 45 L 61,40 Z"/>
 <path style="fill:#f4f4f7" d="M 61,11.875 C 61,10.28225 59.7066,9 58.1,9 H 5.9 C 4.2934,9 3,10.28225 3,11.875 v 40.25 C 3,53.71775 4.2934,55 5.9,55 H 45 L 61,39 Z"/>
 <path style="fill:#5a9bfd" d="M 9,15 H 55 V 35 H 9 Z"/>
 <path style="fill:#2357b4" d="m 9,35 h 46 v 6.95 L 47.95,49 H 9 Z"/>
 <path style="opacity:0.2" d="M 33.184836,37.197788 C 33.042556,37.46841 32.726414,38.132472 33.50829,38 c 2.366222,0.0172 4.73267,-0.0022 7.099006,0 1.130648,0.33363 2.750322,1.426844 3.037528,2.129348 1.081064,1.760402 1.400394,3.434822 1.418242,5.137876 0,0 -3.051242,-4.172114 -4.347296,-6.267224 h -6.943098 c 0,0 8.4996,4.039306 11.225708,6.50756 -0.281148,0.521344 0.642738,-0.10392 0.93085,-0.230434 1.69885,-0.921964 3.340524,-1.95958 4.229308,-3.248274 C 51.195322,40.581728 47.023196,38.912068 44.695736,38.1969 44.428082,38.06006 43.477154,38.047764 43.636498,38 h 3.64495 c -0.553276,-0.228424 -1.126456,-0.756306 -1.71106,-0.946792 -2.054626,-0.0726 -4.117616,-0.02382 -6.175526,-0.0393 H 33.27445 l -0.08962,0.18388 z"/>
 <path style="fill:#3d3d3d" d="m 33.178466,36.70103 c -0.13738,-0.435484 -0.442614,-0.914204 0.3123,-0.70103 2.28463,-0.02768 4.569476,0.0032 6.854214,0 1.091662,-0.536876 1.65232,-1.846088 1.929622,-2.976554 0.472086,-1.480234 0.315026,-3.062648 0.205066,-4.585326 -0.17832,-1.585264 -0.441808,-3.162804 -0.773186,-4.72239 -0.1594,0.321034 -0.13064,1.150898 -0.221984,1.660148 C 41.139162,28.66506 40.78824,31.710108 40.449714,35 h -6.703682 c 2.635598,-3.969574 5.26589,-7.699114 7.897994,-11.671016 -0.27145,-0.838948 0.620576,0.16722 0.898752,0.370812 1.64027,1.48362 3.225334,3.153348 4.08347,5.22711 1.001034,2.328702 -0.0866,5.015508 -2.333808,6.166358 C 44.034016,35.313466 43.115878,35.923136 43.269728,36 h 3.519262 c -0.534196,0.367578 -1.087612,0.627158 -1.652058,0.933684 -1.983776,0.11682 -3.97563,0.03836 -5.962578,0.06324 H 33.26499 L 33.17847,36.70102 Z"/>
 <circle style="opacity:0.2" cx="17" cy="24" r="6"/>
 <circle style="fill:#ffee58" cx="17" cy="23" r="6"/>
 <path style="fill:#cccccc" d="M 45,55 61,39 H 47.666666 C 46.189334,39 45,40.189334 45,41.666666 Z"/>
 <rect style="opacity:0.2" width="46" height="1" x="9" y="15"/>
 <path style="opacity:0.2;fill:#f4f4f7" d="M 5.8984375 9 C 4.2918373 9 3 10.28225 3 11.875 L 3 12.875 C 3 11.28225 4.2918373 10 5.8984375 10 L 58.101562 10 C 59.708163 10 61 11.28225 61 12.875 L 61 11.875 C 61 10.28225 59.708163 9 58.101562 9 L 5.8984375 9 z"/>
 <path style="opacity:0.2;fill:#f4f4f7" d="M 47.667969 39 C 46.190637 39 45 40.190637 45 41.667969 L 45 42.667969 C 45 41.190637 46.190637 40 47.667969 40 L 60 40 L 61 39 L 47.667969 39 z"/>
 <path style="fill:#f4f4f7;opacity:0.2" d="M 17 17 A 6 6 0 0 0 11 23 A 6 6 0 0 0 11.025391 23.498047 A 6 6 0 0 1 17 18 A 6 6 0 0 1 22.974609 23.501953 A 6 6 0 0 0 23 23 A 6 6 0 0 0 17 17 z"/>
</svg>

<svg xmlns="http://www.w3.org/2000/svg" width="64" height="64"><path style="opacity:.2" d="M61 12.875A2.881 2.881 0 0 0 58.1 10H5.9A2.881 2.881 0 0 0 3 12.875v40.25A2.881 2.881 0 0 0 5.9 56H45l16-16z"/><path style="fill:#f4f4f7" d="M61 11.875A2.881 2.881 0 0 0 58.1 9H5.9A2.881 2.881 0 0 0 3 11.875v40.25A2.881 2.881 0 0 0 5.9 55H45l16-16z"/><path style="fill:#5a9bfd" d="M9 15h46v20H9z"/><path style="fill:#2357b4" d="M9 35h46v6.95L47.95 49H9z"/><path style="opacity:.2" d="M33.185 37.198c-.142.27-.459.934.323.802 2.367.017 4.733-.002 7.1 0 1.13.334 2.75 1.427 3.037 2.13 1.08 1.76 1.4 3.434 1.418 5.137 0 0-3.051-4.172-4.347-6.267h-6.943s8.5 4.04 11.225 6.508c-.28.52.643-.104.931-.23 1.7-.923 3.34-1.96 4.23-3.25 1.036-1.446-3.136-3.116-5.463-3.831-.268-.137-1.219-.15-1.06-.197h3.645c-.553-.228-1.126-.756-1.71-.947-2.055-.072-4.118-.024-6.176-.04h-6.12l-.09.185z"/><path style="fill:#3d3d3d" d="M33.178 36.701c-.137-.435-.442-.914.313-.701 2.284-.028 4.57.003 6.854 0 1.092-.537 1.652-1.846 1.93-2.977.472-1.48.315-3.062.205-4.585a49.212 49.212 0 0 0-.774-4.722c-.159.32-.13 1.15-.222 1.66-.345 3.29-.696 6.334-1.034 9.624h-6.704c2.636-3.97 5.266-7.7 7.898-11.671-.271-.839.62.167.899.37 1.64 1.484 3.225 3.154 4.083 5.228 1.001 2.329-.086 5.015-2.334 6.166-.258.22-1.176.83-1.022.907h3.519c-.534.368-1.088.627-1.652.934-1.984.117-3.976.038-5.963.063h-5.909l-.087-.296z"/><circle style="opacity:.2" cx="17" cy="24" r="6"/><circle style="fill:#ffee58" cx="17" cy="23" r="6"/><path style="fill:#ccc" d="m45 55 16-16H47.667A2.66 2.66 0 0 0 45 41.667z"/><path style="opacity:.2" d="M9 15h46v1H9z"/><path style="opacity:.2;fill:#f4f4f7" d="M5.898 9A2.88 2.88 0 0 0 3 11.875v1A2.88 2.88 0 0 1 5.898 10h52.204A2.88 2.88 0 0 1 61 12.875v-1A2.88 2.88 0 0 0 58.102 9H5.898zM47.668 39A2.663 2.663 0 0 0 45 41.668v1A2.663 2.663 0 0 1 47.668 40H60l1-1H47.668z"/><path style="fill:#f4f4f7;opacity:.2" d="M17 17a6 6 0 0 0-6 6 6 6 0 0 0 .025.498A6 6 0 0 1 17 18a6 6 0 0 1 5.975 5.502A6 6 0 0 0 23 23a6 6 0 0 0-6-6z"/></svg>
